src/images/icon_fork.svg

<svg width="16" height="16" viewBox="0 0 16 16" fill="none" xmlns="http://www.w3.org/2000/svg">
<path d="M4.41927 6.274C4.46267 6.60031 4.59939 6.99531 4.82943 7.45902C5.05946 7.92272 5.49566 8.27478 6.13802 8.51522C6.78907 8.75566 7.16884 8.97248 7.27734 9.16569C7.38585 9.3589 7.4401 9.51991 7.4401 9.64871V9.73888C7.0408 9.85909 6.71094 10.0866 6.45052 10.4215C6.1901 10.7564 6.0599 11.1386 6.0599 11.5679C6.0599 12.1003 6.2487 12.5554 6.6263 12.9333C7.00391 13.3111 7.4618 13.5 8 13.5C8.5382 13.5 8.99609 13.3111 9.3737 12.9333C9.7513 12.5554 9.9401 12.1003 9.9401 11.5679C9.9401 11.1386 9.8099 10.7564 9.54948 10.4215C9.28906 10.0866 8.9592 9.85909 8.5599 9.73888V9.64871C8.5599 9.51991 8.61415 9.36105 8.72266 9.17213C8.83116 8.98321 9.21093 8.76425 9.86198 8.51522C10.5043 8.27478 10.9405 7.92272 11.1706 7.45902C11.4006 6.99531 11.5373 6.60031 11.5807 6.274C11.9887 6.16237 12.3273 5.93697 12.5964 5.59778C12.8655 5.25859 13 4.87003 13 4.43208C13 3.89969 12.809 3.44458 12.4271 3.06674C12.0451 2.68891 11.5894 2.5 11.0599 2.5C10.5217 2.5 10.0616 2.68891 9.67969 3.06674C9.29774 3.44458 9.10677 3.89969 9.10677 4.43208C9.10677 4.85285 9.23481 5.22853 9.49089 5.55913C9.74696 5.88974 10.0703 6.11944 10.4609 6.24824C10.4175 6.45433 10.3264 6.67974 10.1875 6.92447C10.0486 7.1692 9.8099 7.35597 9.47135 7.48478C9.14149 7.61358 8.85504 7.74668 8.61198 7.88407C8.36892 8.02147 8.16493 8.17174 8 8.33489C7.83507 8.17174 7.63108 8.02147 7.38802 7.88407C7.14496 7.74668 6.85851 7.61358 6.52865 7.48478C6.1901 7.35597 5.95139 7.1692 5.8125 6.92447C5.67361 6.67974 5.58247 6.45433 5.53906 6.24824C5.92969 6.11944 6.25304 5.88974 6.50911 5.55913C6.76519 5.22853 6.89323 4.85285 6.89323 4.43208C6.89323 3.89969 6.70226 3.44458 6.32031 3.06674C5.93837 2.68891 5.4783 2.5 4.9401 2.5C4.41059 2.5 3.95486 2.68891 3.57292 3.06674C3.19097 3.44458 3 3.89969 3 4.43208C3 4.87003 3.13455 5.25859 3.40365 5.59778C3.67274 5.93697 4.01128 6.16237 4.41927 6.274ZM11.0599 3.60773C11.2856 3.60773 11.4809 3.68716 11.6458 3.84602C11.8108 4.00488 11.8932 4.20023 11.8932 4.43208C11.8932 4.65535 11.8108 4.84855 11.6458 5.01171C11.4809 5.17486 11.2856 5.25644 11.0599 5.25644C10.8255 5.25644 10.628 5.17486 10.4674 5.01171C10.3069 4.84855 10.2266 4.65535 10.2266 4.43208C10.2266 4.20023 10.3069 4.00488 10.4674 3.84602C10.628 3.68716 10.8255 3.60773 11.0599 3.60773ZM8.83333 11.5679C8.83333 11.7998 8.75087 11.9951 8.58594 12.154C8.42101 12.3128 8.2257 12.3923 8 12.3923C7.7743 12.3923 7.57899 12.3128 7.41406 12.154C7.24913 11.9951 7.16667 11.7998 7.16667 11.5679C7.16667 11.3447 7.24913 11.1514 7.41406 10.9883C7.57899 10.8251 7.7743 10.7436 8 10.7436C8.2257 10.7436 8.42101 10.8251 8.58594 10.9883C8.75087 11.1514 8.83333 11.3447 8.83333 11.5679ZM4.9401 3.60773C5.17448 3.60773 5.37196 3.68716 5.53255 3.84602C5.69314 4.00488 5.77344 4.20023 5.77344 4.43208C5.77344 4.65535 5.69314 4.84855 5.53255 5.01171C5.37196 5.17486 5.17448 5.25644 4.9401 5.25644C4.71441 5.25644 4.5191 5.17486 4.35417 5.01171C4.18924 4.84855 4.10677 4.65535 4.10677 4.43208C4.10677 4.20023 4.18924 4.00488 4.35417 3.84602C4.5191 3.68716 4.71441 3.60773 4.9401 3.60773Z" fill="#717A84"/>
</svg>

<svg fill="none" xmlns="http://www.w3.org/2000/svg" viewBox="0 0 16 16"><path d="M4.42 6.274c.043.326.18.721.41 1.185.23.464.666.816 1.308 1.056.651.24 1.03.457 1.14.65.108.194.162.355.162.484v.09c-.4.12-.73.348-.99.682-.26.335-.39.718-.39 1.147 0 .532.189.987.566 1.365A1.87 1.87 0 008 13.5a1.87 1.87 0 001.374-.567c.377-.378.566-.833.566-1.365 0-.43-.13-.812-.39-1.146a1.933 1.933 0 00-.99-.683v-.09c0-.13.054-.288.163-.477.108-.189.488-.408 1.139-.657.642-.24 1.079-.592 1.309-1.056.23-.464.366-.859.41-1.185a1.913 1.913 0 001.015-.676c.27-.34.404-.728.404-1.166 0-.532-.191-.987-.573-1.365A1.877 1.877 0 0011.06 2.5c-.538 0-.998.189-1.38.567a1.851 1.851 0 00-.573 1.365c0 .42.128.797.384 1.127.256.33.58.56.97.69a2.396 2.396 0 01-.274.675c-.138.245-.377.432-.716.56-.33.13-.616.263-.859.4a2.878 2.878 0 00-.612.45 2.878 2.878 0 00-.612-.45 6.731 6.731 0 00-.86-.4c-.338-.128-.577-.315-.715-.56a2.397 2.397 0 01-.274-.676c.39-.129.714-.358.97-.689.256-.33.384-.706.384-1.127 0-.532-.19-.987-.573-1.365A1.892 1.892 0 004.94 2.5c-.53 0-.985.189-1.367.567A1.851 1.851 0 003 4.432c0 .438.135.827.404 1.166.269.339.607.564 1.015.676zm6.64-2.666c.226 0 .42.08.586.238a.782.782 0 01.247.586.788.788 0 01-.247.58.805.805 0 01-.586.244.799.799 0 01-.593-.244.799.799 0 01-.24-.58c0-.232.08-.427.24-.586a.81.81 0 01.593-.238zm-2.227 7.96a.782.782 0 01-.247.586.816.816 0 01-.586.238.816.816 0 01-.586-.238.782.782 0 01-.247-.586c0-.223.082-.417.247-.58A.805.805 0 018 10.744c.226 0 .421.081.586.244a.788.788 0 01.247.58zM4.94 3.608a.81.81 0 01.593.238c.16.159.24.354.24.586 0 .223-.08.417-.24.58a.799.799 0 01-.593.244.805.805 0 01-.586-.244.788.788 0 01-.247-.58c0-.232.082-.427.247-.586a.816.816 0 01.586-.238z"/></svg>
